X: 4
T: The Coleraine
R: jig
M: 6/8
L: 1/8
K: Amin
E|:"Am"EAA ABc|"E"Bee e2d|"Am"cBA ABc|"E"B^GE E2E|
"Am"EAA ABc|"E"Bee e2d|"Am"cBA "E"B^GE|[1"Am"A3 A2E:|[2"Am"A3 A2B||
|:"C"c2c cdc|"G"Bdg g2^g|"Am"aed cBA|"E"^GBG E^FG|
"Am"A^GA "E"BAB|"Am"cde "Dm"fed|"Am"cBA "E"BA^G|[1"Am"A3 A2B:|[2"Am"A3 A2|]


Tune 17	Setting 28652

